!! 00008] TT[TB
!! Eigene Aufnahme   +++ BAND 8 +++
!!!OTL: Sen ji de ma
!!!ARE: Neimeng
!! Ethnic Group: Menggu,
!! Transkription
!!!SCT: C0187A
!!!YEM: Copyright 1995, estate of Helmut Schaffrath.
**kern
*ICvox
*Ivox
!! Irregular meter.
*MX
*k[b-e-a-d-g-]
*D-:
=1
{4.a-
8b-
4.dd-
8b-
=2
4dd-
4a-
8f
8e-
4d-}
{8dd-
4.dd-
8a-
8b-
8a-
=3
8ff
8ee-
4.dd-
8ee-
4dd-}
{2dd-
2aa-
=4
4ff
4aa-
8ff
8ee-
4dd-}
{8dd-
4.dd-
8dd-
8ee-
8ff
=5
8cc
8b-
4.a-
8b-
4a-}
{4dd-
8a-
8b-
8ee-
4dd-
8b-
=6
4dd-
8f
8a-
8f
8e-
8r
8f}
{8.a-
16b-
4dd-
4dd-
8f
8e-
=7
8f
4d-
8e-
4d-
4r}
{4.dd-
8a-
8b-
8a-
8ff
8ee-
=8
4.dd-
8ee-
4cc-
4b-}
{4.a-
8b-
4.dd-
8b-
=9
4dd-
8f
8a-
8f
8e-
8r
8f}
{4.a-
8b-
4dd-
8b-
8a-
=10
4f
4e-
8f
4d-
8r
8e-}
{8.f
16a-
8.b-
16dd-
4a-
8f
8e-
=11
8.d-
16e-
8f
8a-
8a-
4.d-}
==
!!!ONB: ESAC (Essen Associative Code) Database: CHINA
!!!AMT: irregular
!!!AIN: vox
!!!EED: Helmut Schaffrath
!!!EEV: 1.0
*-
